!!!COM: Chopin, Frederic
!!!CDT: 1810///-1849///
!!!OTL: Mazurka in B-flat Minor, Op. 24, No. 4
!!!OPS: Op. 24
!!!ONM: No. 4
!!!OMD: Moderato
!!!ODT: 1833///
!!!PDT: 1836///
!!!PPP: Leipzig, Paris and London
!!!ODE: Count de Perthuis
**kern	**kern	**dynam
*thru	*thru	*thru
*staff2	*staff1	*staff1/2
*Ipiano	*Ipiano	*Ipiano
*>A	*>A	*>A
*clefF4	*clefG2	*clefG2
*k[b-e-a-d-g-]	*k[b-e-a-d-g-]	*k[b-e-a-d-g-]
*b-:	*b-:	*b-:
*M3/4	*M3/4	*M3/4
*MM138	*MM138	*MM138
*	*^	*
=5	=5	=5	=5
4r	2r	4.r	.
4F\	.	.	.
.	.	4an\	.
4F\	[4dd-^/	.	.
.	.	8a\	.
=6	=6	=6	=6
4BB-/	2.dd-/])	(8.an\L	<
.	.	16b-\Jk)	.
4F\ 4d-\	.	4b-\	.
4E-\ 4d-\	.	[4b-^\	.
=7	=7	=7	=7
4AA-/	2ff/	4.b-\]	.
4A-\ 4g-\	.	.	.
.	.	4cc\	.
4A-\ 4g-\	[4ff/	.	.
.	.	8cc\	.
=8	=8	=8	=8
4D-\	2.ff/]	(8.cc\L	.
.	.	16dd-\Jk)	.
4A-\ 4f\	.	4dd-\	.
4Gn\ 4f\	.	[4dd-^\	.
=9	=9	=9	=9
4C/	(2aa-/	4.dd-\]	.
*clefG2	*	*	*
4c/ 4b-/	.	.	.
.	.	4een\	.
4c/ 4b-/	[4aa-/	.	.
.	.	8ee\	.
=10	=10	=10	=10
*^	*	*	*
4r	2.F\	2aa-/])	(8.een\L	.
.	.	.	16ff\Jk)	.
4c/	.	.	4ff\	.
4c/	.	4r	[4ff^\ [4fff^\	.
*v	*v	*	*	*
=11	=11	=11	=11
4FF'/	8.ff\] (8.fff\L]	2r	ff
.	16gg-\ 16ggg-\Jk)	.	.
*clefG2	*	*	*
(4c/ 4e-/ 4an/	4gg-'\ 4ggg-'\	.	.
4e-/	4r	4an^/	.
*clefF4	*	*	*
*	*v	*v	*
=12	=12	=12
4BB-'/	4r	>
4F\ 4d-\	4r	.
!!!ENC: Craig Stuart Sapp
!!!END: 2005/03/03/
!!!URL: http://www.chopinsociety.org/maz_rf.htm#maz244 (short description by David Dubal)
!!!URL: http://chopin.lib.uchicago.edu/gsdl/cgi-bin/library?e=d-000-00---0chopin--00-0-0-0prompt-10---4---Document-dtt--0-1l--1-en-Zz-1---50-home-mazurka--001-001-0-0utfZz-8-0&a=d&c=chopin&cl=CL3.10.9 (Early editions of op. 24 at the University of Chicago)
